!!!OTL: Herzens Schluessel
!!!ARE: Europa, Mitteleuropa, Deutschland
!!!SCT: A0135A
!!!YEM: Copyright 1995, estate of Helmut Schaffrath.
**kern
*ICvox
*Ivox
!! Mixed meters:  4/2; 6/2
*M4/2
*k[b-]
*F:
{1f
2f
2f
=1
2a
2a
2cc
2cc
=2
2a}
{2cc
2cc
2cc
=3
2b-
2a
1g
=4
0f}
=5
{1f
2f
2f
=6
2a
2a
2cc
2cc
=7
2a}
{2cc
2cc
2cc
=8
2b-
2a
1g
=9
1.f}
{2cc
=10
2cc
2cc
2cc
2b-
=11
1a
1g
=12
1r}
{1a
=13
*M6/2
1b-
2b-
1cc
2a
=14
*M4/2
0g
=15
1r}
{1cc
=16
2dd
2cc
2cc
2a
=17
*M6/2
1f
2cc
1a}
{2cc
=18
2cc
2cc
2b-
2a
1g
=19
0f}
==
!!!AGN: Romanze, Ballade, Lied
!! 68 Lieder. Nuernberg c. 1542 No. 21.
!!!ONB: ESAC (Essen Associative Code) Database: ALTDEU
!!!AMT: irregular
!!!AIN: vox
!!!EED: Helmut Schaffrath
!!!EEV: 1.0
*-
